packages/vue-dot/src/assets/images/not-found.svg

<svg width="175" height="185" viewBox="0 0 175 185" fill="none" xmlns="http://www.w3.org/2000/svg">
<path fill-rule="evenodd" clip-rule="evenodd" d="M82.0532 1.0348C107.074 5.2556 117.789 32.9182 134.685 51.7916C149.906 68.7933 173.487 81.4886 174.459 104.255C175.449 127.446 158.573 148.26 139.363 161.381C122.891 172.631 101.85 164.766 82.0532 167.369C56.0851 170.782 26.384 196.653 7.33054 178.737C-11.6019 160.936 14.8172 130.198 14.9305 104.255C15.0427 78.5562 -6.04517 51.9819 7.97808 30.4173C23.0048 7.30952 54.8142 -3.56017 82.0532 1.0348Z" fill="#E7ECF5"/>
<path d="M101.758 132.914L80.075 96.8984L73.3269 85.6899L76.5414 80.8859C76.5414 80.8859 109.479 80.0883 111.888 80.8859L147.234 136.931L143.217 141.735H107.067L101.758 132.914Z" fill="white"/>
<path d="M101.757 132.914L107.067 141.735H106.665L54.1829 133.727L101.757 132.914Z" fill="#0C419A"/>
<path d="M54.1837 133.727L54.0481 133.73V96.9009H80.0753L101.758 132.914L54.1837 133.727Z" fill="white"/>
<path d="M54.0479 96.901V133.73L34.7661 124.122V88.8961L54.0479 96.901Z" fill="white"/>
<path d="M63.8718 64.2559L81.1196 59.1365L101.63 53.0474C101.63 53.0474 104.166 57.4725 111.499 55.6468C105.972 57.4725 91.2205 62.3215 84.7595 64.2559C76.7246 66.6565 63.8718 64.2559 63.8718 64.2559Z" fill="#0C419A"/>
<path d="M111.507 55.6442C111.505 55.6468 111.499 55.6468 111.497 55.6468C104.164 57.4725 101.627 53.0474 101.627 53.0474L81.1169 59.1365C82.7122 57.7693 88.878 52.1094 89.5773 45.8427C90.3803 38.638 92.7918 30.6304 99.2182 27.4269C105.036 24.528 127.178 12.2914 131.321 9.99939C130.132 10.8367 128.931 12.3312 127.899 14.8855C127.396 16.1309 126.931 17.6254 126.532 19.4219C123.318 33.834 124.121 50.6467 114.48 54.6505C113.414 55.093 112.422 55.4189 111.507 55.6442Z" fill="white"/>
<path d="M131.321 9.99941C134.198 7.96705 136.976 9.81393 136.976 9.81393L128.003 14.928L127.899 14.8856C128.931 12.3286 130.133 10.8341 131.321 9.99941Z" fill="#0C419A"/>
<path d="M111.507 55.6442C112.847 55.2017 113.642 54.9393 113.642 54.9393" stroke="#0C419A" stroke-width="2" stroke-miterlimit="10" stroke-linecap="round" stroke-linejoin="round"/>
<path d="M111.499 55.6468C104.166 57.4725 101.63 53.0474 101.63 53.0474L81.1196 59.1365L63.8718 64.2559C63.8718 64.2559 76.7246 66.6592 84.7595 64.2559C91.2178 62.3242 105.969 57.4725 111.499 55.6468Z" stroke="#0C419A" stroke-width="2" stroke-miterlimit="10" stroke-linecap="round" stroke-linejoin="round"/>
<path d="M111.5 55.6472C111.503 55.6472 111.506 55.6472 111.512 55.6442" stroke="#0C419A" stroke-width="2" stroke-miterlimit="10" stroke-linecap="round" stroke-linejoin="round"/>
<path d="M128.003 14.928L136.976 9.81393C136.976 9.81393 134.198 7.96705 131.321 9.99941C130.132 10.8367 128.931 12.3312 127.899 14.8856C127.396 16.131 126.931 17.6254 126.532 19.422C123.318 33.834 124.121 50.6467 114.48 54.6505C113.411 55.0957 112.422 55.419 111.507 55.6442" stroke="#0C419A" stroke-width="2" stroke-miterlimit="10" stroke-linecap="round" stroke-linejoin="round"/>
<path d="M80.7422 59.4519C80.7422 59.4519 80.8804 59.3432 81.1171 59.1365C82.7124 57.7693 88.8782 52.1094 89.5775 45.8427C90.3804 38.638 92.792 30.6304 99.2184 27.4269C105.036 24.528 127.179 12.2914 131.321 9.99938C131.754 9.75826 131.991 9.62842 131.991 9.62842" stroke="#0C419A" stroke-width="2" stroke-miterlimit="10" stroke-linecap="round" stroke-linejoin="round"/>
<path d="M97.6123 33.0311L117.694 22.6228" stroke="#0C419A" stroke-width="2" stroke-miterlimit="10" stroke-linecap="round" stroke-linejoin="round"/>
<path d="M96.0063 40.2385L116.891 29.8276" stroke="#0C419A" stroke-width="2" stroke-miterlimit="10" stroke-linecap="round" stroke-linejoin="round"/>
<path d="M62.0802 88.8961H34.7661L54.0479 96.901H80.0751H80.1549" stroke="#0C419A" stroke-width="2" stroke-miterlimit="10" stroke-linecap="round" stroke-linejoin="round"/>
<path d="M101.787 132.914H101.758L54.1837 133.727L54.0481 133.73V96.9011" stroke="#0C419A" stroke-width="2" stroke-miterlimit="10" stroke-linecap="round" stroke-linejoin="round"/>
<path d="M54.0479 133.73L34.7661 124.122V88.8961" stroke="#0C419A" stroke-width="2" stroke-miterlimit="10" stroke-linecap="round" stroke-linejoin="round"/>
<path d="M76.5388 80.8887L111.082 136.931H137.596" stroke="#0C419A" stroke-width="2" stroke-miterlimit="10" stroke-linecap="round" stroke-linejoin="round"/>
<path d="M54.0559 133.709L54.1835 133.727L106.666 141.735H107.068H143.217L147.234 136.931L111.885 80.8885C109.476 80.091 76.5389 80.8885 76.5389 80.8885L73.3244 85.6926L80.0725 96.901L101.755 132.917L107.065 141.738" stroke="#0C419A" stroke-width="2" stroke-miterlimit="10" stroke-linecap="round" stroke-linejoin="round"/>
<line x1="1" y1="-1" x2="7.27283" y2="-1" transform="matrix(0.147933 0.988997 -0.988875 0.148749 49.186 55.2727)" stroke="#0C419A" stroke-width="2" stroke-linecap="round" stroke-linejoin="round"/>
<line x1="1" y1="-1" x2="8.26334" y2="-1" transform="matrix(0.660575 0.75076 -0.748914 0.662667 40.6191 58.5454)" stroke="#0C419A" stroke-width="2" stroke-linecap="round" stroke-linejoin="round"/>
<line x1="1" y1="-1" x2="5.38891" y2="-1" transform="matrix(0.893923 0.448221 -0.446208 0.894929 38.1714 66.3181)" stroke="#0C419A" stroke-width="2" stroke-linecap="round" stroke-linejoin="round"/>
</svg>

<svg xmlns="http://www.w3.org/2000/svg" fill="none" viewBox="0 0 175 185"><path fill="#e7ecf5" fill-rule="evenodd" d="M82.05 1.03c25.02 4.23 35.74 31.89 52.64 50.76 15.22 17 38.8 29.7 39.77 52.46.99 23.2-15.89 44.01-35.1 57.13-16.47 11.25-37.51 3.39-57.3 5.99-25.97 3.41-55.68 29.28-74.73 11.37-18.93-17.8 7.49-48.54 7.6-74.49.11-25.7-20.98-52.27-6.95-73.83C23 7.3 54.8-3.56 82.05 1.03Z" clip-rule="evenodd"/><path fill="#fff" d="M101.76 132.91 80.07 96.9l-6.74-11.21 3.21-4.8s32.94-.8 35.35 0l35.34 56.04-4.01 4.8h-36.15l-5.31-8.82Z"/><path fill="#0c419a" d="m101.76 132.91 5.3 8.83h-.4l-52.48-8.01 47.58-.82Z"/><path fill="#fff" d="M54.18 133.73h-.13V96.9h26.03l21.68 36.01-47.58.82ZM54.05 96.9v36.83l-19.28-9.6V88.9l19.28 8Z"/><path fill="#0c419a" d="m63.87 64.26 17.25-5.12 20.51-6.1s2.54 4.43 9.87 2.6c-5.53 1.83-20.28 6.68-26.74 8.62-8.04 2.4-20.89 0-20.89 0Z"/><path fill="#fff" d="M111.5 55.64c-7.34 1.83-9.87-2.6-9.87-2.6l-20.51 6.1c1.6-1.37 7.76-7.03 8.46-13.3.8-7.2 3.21-15.21 9.64-18.41 5.82-2.9 27.96-15.14 32.1-17.43-1.19.84-2.39 2.33-3.42 4.89a28.8 28.8 0 0 0-1.37 4.53c-3.21 14.41-2.4 31.23-12.05 35.23-1.07.44-2.06.77-2.97 1Z"/><path fill="#0c419a" d="M131.32 10c2.88-2.03 5.66-.19 5.66-.19L128 14.93l-.1-.04c1.03-2.56 2.23-4.06 3.42-4.9Z"/><path stroke="#0c419a" stroke-linecap="round" stroke-linejoin="round" stroke-miterlimit="10" stroke-width="2" d="m111.5 55.64 2.14-.7M111.5 55.65c-7.33 1.82-9.87-2.6-9.87-2.6l-20.51 6.09-17.25 5.12s12.85 2.4 20.89 0c6.46-1.94 21.2-6.79 26.74-8.61ZM111.5 55.65h.01M128 14.93l8.98-5.12s-2.78-1.84-5.66.19c-1.19.84-2.39 2.33-3.42 4.89a28.8 28.8 0 0 0-1.37 4.53c-3.21 14.41-2.4 31.23-12.05 35.23-1.07.45-2.06.77-2.97 1"/><path stroke="#0c419a" stroke-linecap="round" stroke-linejoin="round" stroke-miterlimit="10" stroke-width="2" d="M80.74 59.45s.14-.1.38-.31c1.6-1.37 7.76-7.03 8.46-13.3.8-7.2 3.21-15.21 9.64-18.41 5.82-2.9 27.96-15.14 32.1-17.43l.67-.37M97.61 33.03l20.08-10.4M96 40.24l20.9-10.41M62.08 88.9H34.77l19.28 8h26.1M101.79 132.91h-.03l-47.58.82h-.13V96.9M54.05 133.73l-19.28-9.6V88.9M76.54 80.89l34.54 56.04h26.52"/><g stroke="#0c419a" stroke-linecap="round" stroke-linejoin="round" stroke-width="2"><path stroke="#0c419a" stroke-miterlimit="10" d="m54.06 133.7.12.03 52.49 8h36.55l4.01-4.8L111.9 80.9c-2.41-.8-35.35 0-35.35 0l-3.22 4.8 6.75 11.21 21.69 36.02 5.3 8.82"/><path  d="M1-1h6.27" transform="rotate(81.49 -7.48 56.18) skewX(.05)"/><path d="M1-1h7.26" transform="rotate(48.66 -44.44 74.2) skewX(.16)"/><path d="M1-1h4.39" transform="matrix(.9 .45 -.45 .9 38.17 66.32)"/></g></svg>
